public/icon_ft.svg

<?xml version="1.0" encoding="utf-8"?>
<!-- Generator: Adobe Illustrator 28.0.0, SVG Export Plug-In . SVG Version: 6.00 Build 0)  -->
<svg version="1.1" id="Layer_1" xmlns="http://www.w3.org/2000/svg" xmlns:xlink="http://www.w3.org/1999/xlink" x="0px" y="0px"
	 viewBox="0 0 7.8 5" style="enable-background:new 0 0 7.8 5;" xml:space="preserve">
<style type="text/css">
	.st0{fill:#F95208;}
</style>
<path class="st0" d="M0.1,4.7c0,0.1,0.1,0.2,0.2,0.2H1c0.1,0,0.2-0.1,0.2-0.2V3.1c0-0.1,0-0.1,0.1-0.2H3c0.1,0,0.2-0.1,0.2-0.2V2.3
	c0-0.1-0.1-0.2-0.2-0.2H1.4c-0.2,0-0.2,0-0.2-0.1l0,0V1.2c0-0.1,0-0.2,0.1-0.2H5c0.1,0,0.2,0.1,0.2,0.2v3.5c0,0.1,0.1,0.2,0.2,0.2
	h0.7c0.1,0,0.2-0.1,0.2-0.2V1.2c0-0.1,0-0.2,0.1-0.2h1.1c0.1,0,0.2,0,0.2-0.1V0.4c0-0.1-0.1-0.2-0.2-0.2H0.3c-0.1,0-0.2,0.1-0.2,0.2
	l0,0C0.1,0.4,0.1,4.7,0.1,4.7z"/>
</svg>

<?xml version="1.0" encoding="utf-8"?>
<!-- Generator: Adobe Illustrator 28.0.0, SVG Export Plug-In . SVG Version: 6.00 Build 0)  -->
<svg version="1.1" id="Layer_1" xmlns="http://www.w3.org/2000/svg" xmlns:xlink="http://www.w3.org/1999/xlink" x="0px" y="0px"
	 viewBox="0 0 7.8 5" style="enable-background:new 0 0 7.8 5;" xml:space="preserve">
<style type="text/css">
	.st0{fill:#282829;}
	.st1{fill:#EF4136;}
</style>
<g>
	<path class="st0" d="M6.1,5H5.4C5.3,5,5.2,4.9,5.2,4.7l0-3.5c0-0.1-0.1-0.1-0.1-0.1H1.3c-0.1,0-0.1,0.1-0.1,0.1l0,0.8v0l0,0
		c0,0.1,0.1,0.1,0.1,0.1l1.6,0c0.1,0,0.2,0.1,0.2,0.2v0.4C3.2,2.9,3.1,3,3,3H1.3C1.3,3,1.2,3.1,1.2,3.1l0,1.6C1.2,4.9,1.1,5,1,5H0.3
		C0.2,5,0.1,4.9,0.1,4.7V0.4c0-0.1,0.1-0.2,0.2-0.2h7.2c0.1,0,0.2,0.1,0.2,0.2v0.5c0,0.1-0.1,0.2-0.2,0.2l-1.1,0
		c-0.1,0-0.1,0.1-0.1,0.1l0,3.5C6.3,4.9,6.2,5,6.1,5L6.1,5z"/>
	<path class="st1" d="M0.1,4.7c0,0.1,0.1,0.2,0.2,0.2H1c0.1,0,0.2-0.1,0.2-0.2l0-1.6C1.2,3,1.2,3,1.3,2.9H3c0.1,0,0.2-0.1,0.2-0.2
		V2.3c0-0.1-0.1-0.2-0.2-0.2l-1.6,0C1.2,2.1,1.2,2.1,1.2,2c0,0,0,0,0,0l0-0.8C1.2,1.1,1.2,1,1.3,1H5c0.1,0,0.2,0.1,0.2,0.2l0,3.5
		c0,0.1,0.1,0.2,0.2,0.2h0.7c0.1,0,0.2-0.1,0.2-0.2l0-3.5C6.3,1.1,6.3,1,6.4,1l1.1,0C7.6,1,7.7,1,7.7,0.9V0.4c0-0.1-0.1-0.2-0.2-0.2
		H0.3c-0.1,0-0.2,0.1-0.2,0.2c0,0,0,0,0,0V4.7z"/>
</g>
</svg>
